src/assets/images/realtime/realtimekit/web/components-gallery/rtk-plugin-main.svg

<svg width="400" height="300" viewBox="0 0 400 300" fill="none" xmlns="http://www.w3.org/2000/svg" xmlns:xlink="http://www.w3.org/1999/xlink">
<g clip-path="url(#clip0_9781_46598)">
<rect width="400" height="300" fill="white"/>
<g style="mix-blend-mode:darken">
<path d="M0 4.21053C0 1.88512 1.88512 0 4.21053 0H395.789C398.115 0 400 1.88512 400 4.21053V295.789C400 298.115 398.115 300 395.789 300H4.21054C1.88513 300 0 298.115 0 295.789V4.21053Z" fill="url(#pattern0_9781_46598)"/>
</g>
<path d="M74 106.25C74 105.388 74.3424 104.561 74.9519 103.952C75.5614 103.342 76.388 103 77.25 103H90.75C91.1768 103 91.5994 103.084 91.9937 103.247C92.388 103.411 92.7463 103.65 93.0481 103.952C93.3499 104.254 93.5893 104.612 93.7526 105.006C93.9159 105.401 94 105.823 94 106.25V112H93.742C93.6776 111.022 93.2316 110.108 92.5 109.455V106.25C92.5 105.786 92.3156 105.341 91.9874 105.013C91.6592 104.684 91.2141 104.5 90.75 104.5H77.25C76.7859 104.5 76.3408 104.684 76.0126 105.013C75.6844 105.341 75.5 105.786 75.5 106.25V115.75C75.5 116.716 76.284 117.5 77.25 117.5H84V118C84 118.34 84.04 118.674 84.118 119H77.25C76.388 119 75.5614 118.658 74.9519 118.048C74.3424 117.439 74 116.612 74 115.75V106.25ZM93.5 116C93.8978 116 94.2794 116.158 94.5607 116.439C94.842 116.721 95 117.102 95 117.5V118C95 119.971 93.14 122 90 122C86.86 122 85 119.971 85 118V117.5C85 117.102 85.158 116.721 85.4393 116.439C85.7206 116.158 86.1022 116 86.5 116H93.5ZM90 109.5C90.7293 109.5 91.4288 109.79 91.9445 110.305C92.4603 110.821 92.75 111.521 92.75 112.25C92.75 112.979 92.4603 113.679 91.9445 114.195C91.4288 114.71 90.7293 115 90 115C89.2707 115 88.5712 114.71 88.0555 114.195C87.5397 113.679 87.25 112.979 87.25 112.25C87.25 111.521 87.5397 110.821 88.0555 110.305C88.5712 109.79 89.2707 109.5 90 109.5Z" fill="white" fill-opacity="0.88"/>
<path d="M75.6257 126.727H76.7195V131.884C76.7195 132.35 76.6271 132.749 76.4425 133.08C76.2602 133.412 76.0033 133.665 75.6719 133.84C75.3404 134.013 74.9522 134.099 74.5071 134.099C74.0975 134.099 73.7294 134.025 73.4027 133.876C73.0784 133.727 72.8215 133.51 72.6321 133.226C72.4451 132.939 72.3516 132.591 72.3516 132.182H73.4418C73.4418 132.383 73.4879 132.557 73.5803 132.704C73.675 132.851 73.804 132.965 73.9673 133.048C74.133 133.129 74.3224 133.169 74.5355 133.169C74.7675 133.169 74.964 133.121 75.125 133.023C75.2884 132.924 75.4126 132.778 75.4979 132.587C75.5831 132.395 75.6257 132.161 75.6257 131.884V126.727ZM80.5289 134.11C80.0176 134.11 79.5713 133.993 79.1902 133.759C78.809 133.524 78.5131 133.196 78.3024 132.775C78.0917 132.353 77.9863 131.861 77.9863 131.298C77.9863 130.732 78.0917 130.237 78.3024 129.813C78.5131 129.389 78.809 129.06 79.1902 128.826C79.5713 128.592 80.0176 128.474 80.5289 128.474C81.0403 128.474 81.4866 128.592 81.8677 128.826C82.2489 129.06 82.5448 129.389 82.7555 129.813C82.9662 130.237 83.0716 130.732 83.0716 131.298C83.0716 131.861 82.9662 132.353 82.7555 132.775C82.5448 133.196 82.2489 133.524 81.8677 133.759C81.4866 133.993 81.0403 134.11 80.5289 134.11ZM80.5325 133.219C80.8639 133.219 81.1386 133.131 81.3564 132.956C81.5742 132.781 81.7351 132.548 81.8393 132.256C81.9458 131.965 81.9991 131.644 81.9991 131.294C81.9991 130.946 81.9458 130.626 81.8393 130.335C81.7351 130.042 81.5742 129.806 81.3564 129.629C81.1386 129.451 80.8639 129.362 80.5325 129.362C80.1987 129.362 79.9217 129.451 79.7015 129.629C79.4837 129.806 79.3216 130.042 79.215 130.335C79.1109 130.626 79.0588 130.946 79.0588 131.294C79.0588 131.644 79.1109 131.965 79.215 132.256C79.3216 132.548 79.4837 132.781 79.7015 132.956C79.9217 133.131 80.1987 133.219 80.5325 133.219ZM85.3185 130.761V134H84.2567V126.727H85.3043V129.433H85.3718C85.4996 129.14 85.695 128.906 85.9577 128.734C86.2205 128.561 86.5638 128.474 86.9876 128.474C87.3616 128.474 87.6883 128.551 87.9677 128.705C88.2494 128.859 88.4672 129.089 88.6211 129.394C88.7773 129.697 88.8555 130.076 88.8555 130.531V134H87.7937V130.658C87.7937 130.258 87.6907 129.948 87.4847 129.728C87.2788 129.505 86.9923 129.394 86.6254 129.394C86.3744 129.394 86.1495 129.447 85.9506 129.554C85.7541 129.661 85.5991 129.817 85.4854 130.023C85.3742 130.226 85.3185 130.473 85.3185 130.761ZM91.3342 130.761V134H90.2724V128.545H91.2915V129.433H91.359C91.4845 129.144 91.681 128.912 91.9485 128.737C92.2184 128.562 92.5581 128.474 92.9677 128.474C93.3394 128.474 93.6649 128.553 93.9442 128.709C94.2236 128.863 94.4402 129.092 94.5941 129.398C94.748 129.703 94.8249 130.081 94.8249 130.531V134H93.7631V130.658C93.7631 130.263 93.6602 129.954 93.4542 129.732C93.2482 129.507 92.9653 129.394 92.6055 129.394C92.3593 129.394 92.1403 129.447 91.9485 129.554C91.7591 129.661 91.6088 129.817 91.4975 130.023C91.3886 130.226 91.3342 130.473 91.3342 130.761Z" fill="white"/>
<rect x="19" y="30" width="362" height="239" rx="4" fill="#0B0B0B"/>
<g clip-path="url(#clip1_9781_46598)">
<rect x="300" y="59" width="74" height="56" rx="4" fill="#1E1E1E"/>
<g clip-path="url(#clip2_9781_46598)">
<path d="M365.6 68.2C365.269 68.2 365 67.9314 365 67.6C365 67.2686 365.269 67 365.6 67C365.931 67 366.2 67.2686 366.2 67.6C366.2 67.9314 365.931 68.2 365.6 68.2ZM365.6 70.6C365.269 70.6 365 70.3314 365 70C365 69.6686 365.269 69.4 365.6 69.4C365.931 69.4 366.2 69.6686 366.2 70C366.2 70.3314 365.931 70.6 365.6 70.6ZM365 72.4C365 72.7314 365.269 73 365.6 73C365.931 73 366.2 72.7314 366.2 72.4C366.2 72.0686 365.931 71.8 365.6 71.8C365.269 71.8 365 72.0686 365 72.4Z" fill="#999999"/>
</g>
<rect x="309.805" y="109.338" width="17.2667" height="2.17777" rx="1.08889" fill="#474747"/>
</g>
<g clip-path="url(#clip3_9781_46598)">
<rect x="300" y="121" width="74" height="56" rx="4" fill="#1E1E1E"/>
<g clip-path="url(#clip4_9781_46598)">
<path d="M365.6 130.2C365.269 130.2 365 129.931 365 129.6C365 129.269 365.269 129 365.6 129C365.931 129 366.2 129.269 366.2 129.6C366.2 129.931 365.931 130.2 365.6 130.2ZM365.6 132.6C365.269 132.6 365 132.331 365 132C365 131.669 365.269 131.4 365.6 131.4C365.931 131.4 366.2 131.669 366.2 132C366.2 132.331 365.931 132.6 365.6 132.6ZM365 134.4C365 134.731 365.269 135 365.6 135C365.931 135 366.2 134.731 366.2 134.4C366.2 134.069 365.931 133.8 365.6 133.8C365.269 133.8 365 134.069 365 134.4Z" fill="#999999"/>
</g>
<rect x="309.805" y="171.338" width="17.2667" height="2.17777" rx="1.08889" fill="#474747"/>
</g>
<g clip-path="url(#clip5_9781_46598)">
<rect x="300" y="183" width="74" height="57" rx="4" fill="#1E1E1E"/>
<g clip-path="url(#clip6_9781_46598)">
<path d="M365.6 192.2C365.269 192.2 365 191.931 365 191.6C365 191.269 365.269 191 365.6 191C365.931 191 366.2 191.269 366.2 191.6C366.2 191.931 365.931 192.2 365.6 192.2ZM365.6 194.6C365.269 194.6 365 194.331 365 194C365 193.669 365.269 193.4 365.6 193.4C365.931 193.4 366.2 193.669 366.2 194C366.2 194.331 365.931 194.6 365.6 194.6ZM365 196.4C365 196.731 365.269 197 365.6 197C365.931 197 366.2 196.731 366.2 196.4C366.2 196.069 365.931 195.8 365.6 195.8C365.269 195.8 365 196.069 365 196.4Z" fill="#999999"/>
</g>
<rect x="309.805" y="234.237" width="17.2667" height="2.21666" rx="1.10833" fill="#474747"/>
</g>
<path d="M19 34C19 31.7909 20.7909 30 23 30H377C379.209 30 381 31.7909 381 34V43H19V34Z" fill="#1E1E1E"/>
<path d="M19 265C19 267.209 20.7909 269 23 269H377C379.209 269 381 267.209 381 265V256H19V265Z" fill="#1E1E1E"/>
<rect x="54" y="56" width="240" height="188" rx="4" fill="#1E1E1E"/>
<g clip-path="url(#clip7_9781_46598)">
<path d="M46.4 56H25.6C24.7163 56 24 56.7163 24 57.6V78.4C24 79.2837 24.7163 80 25.6 80H46.4C47.2837 80 48 79.2837 48 78.4V57.6C48 56.7163 47.2837 56 46.4 56Z" fill="#2160FD"/>
<path d="M41.7559 61.9219C41.6179 61.4071 41.2129 61.0009 40.6987 60.8623C39.7591 60.6043 36.0001 60.6001 36.0001 60.6001C36.0001 60.6001 32.2417 60.5959 31.3015 60.8425C30.7975 60.9799 30.3811 61.3951 30.2419 61.9093C29.9941 62.8489 29.9917 64.7977 29.9917 64.7977C29.9917 64.7977 29.9893 66.7561 30.2353 67.6861C30.3733 68.2003 30.7783 68.6065 31.2931 68.7451C32.2423 69.0031 35.9911 69.0073 35.9911 69.0073C35.9911 69.0073 39.7501 69.0115 40.6897 68.7655C41.2033 68.6275 41.6101 68.2219 41.7499 67.7077C41.9983 66.7687 42.0001 64.8205 42.0001 64.8205C42.0001 64.8205 42.0121 62.8615 41.7559 61.9219ZM34.7977 66.6031L34.8007 63.0031L37.9249 64.8061L34.7977 66.6031Z" fill="#F5F5F7"/>
<path d="M43.5999 73.2002H27.9999C27.1162 73.2002 26.3999 73.9165 26.3999 74.8002C26.3999 75.6839 27.1162 76.4002 27.9999 76.4002H43.5999C44.4836 76.4002 45.1999 75.6839 45.1999 74.8002C45.1999 73.9165 44.4836 73.2002 43.5999 73.2002Z" fill="#DDDDDD"/>
</g>
</g>
<defs>
<pattern id="pattern0_9781_46598" patternContentUnits="objectBoundingBox" width="0.0368421" height="0.0491228">
<use xlink:href="#image0_9781_46598" transform="scale(0.000657895 0.000877193)"/>
</pattern>
<clipPath id="clip0_9781_46598">
<rect width="400" height="300" fill="white"/>
</clipPath>
<clipPath id="clip1_9781_46598">
<rect x="300" y="59" width="74" height="56" rx="4" fill="white"/>
</clipPath>
<clipPath id="clip2_9781_46598">
<rect width="16" height="16" fill="white" transform="translate(350 67)"/>
</clipPath>
<clipPath id="clip3_9781_46598">
<rect x="300" y="121" width="74" height="56" rx="4" fill="white"/>
</clipPath>
<clipPath id="clip4_9781_46598">
<rect width="16" height="16" fill="white" transform="translate(350 129)"/>
</clipPath>
<clipPath id="clip5_9781_46598">
<rect x="300" y="183" width="74" height="57" rx="4" fill="white"/>
</clipPath>
<clipPath id="clip6_9781_46598">
<rect width="16" height="16" fill="white" transform="translate(350 191)"/>
</clipPath>
<clipPath id="clip7_9781_46598">
<rect width="24" height="24" fill="white" transform="translate(24 56)"/>
</clipPath>
<image id="image0_9781_46598" width="56" height="56" preserveAspectRatio="none" xlink:href="data:image/png;base64,iVBORw0KGgoAAAANSUhEUgAAADgAAAA4CAYAAACohjseAAAACXBIWXMAACxLAAAsSwGlPZapAAAAAXNSR0IArs4c6QAAAARnQU1BAACxjwv8YQUAAADdSURBVHgB7dmxDoMgFIXhCzEmbsbF9388F8PGAKHt6dSksvXaHHK+EQbzB0Sj4fFiA4s2OAWyUyA7BbJTIDsFslMgOwWyUyA7BbJTIDsFspvsBrVWO8/TSinWWrNlWWxdV5sm/8sH7w+/iDuO4x32KcZo+767R7pv0ZTSVxxgDKvqzT0w59ydw5b15h4YQujOXa3sr7kHzvPcncNh4809cNu2y1XEGE5Sb+GO32c4SXHY4H5EGFYV4UM8Jv5Nr2rsFMhOgewUyE6B7BTIToHsFMhOgewUyE6B7IYPfALcB0NZ5j6jXgAAAABJRU5ErkJggg=="/>
</defs>
</svg>

<svg xmlns="http://www.w3.org/2000/svg" xmlns:xlink="http://www.w3.org/1999/xlink" width="400" height="300" fill="none" viewBox="0 0 400 300"><g clip-path="url(#clip0_9781_46598)"><path fill="#fff" d="M0 0h400v300H0z"/><path fill="url(#pattern0_9781_46598)" d="M0 4.21A4.21 4.21 0 0 1 4.21 0h391.58A4.21 4.21 0 0 1 400 4.21v291.58a4.21 4.21 0 0 1-4.211 4.211H4.211A4.21 4.21 0 0 1 0 295.789z" style="mix-blend-mode:darken"/><path fill="#fff" fill-opacity=".88" d="M74 106.25a3.25 3.25 0 0 1 3.25-3.25h13.5a3.26 3.26 0 0 1 2.298.952A3.25 3.25 0 0 1 94 106.25V112h-.258a3.74 3.74 0 0 0-1.242-2.545v-3.205a1.75 1.75 0 0 0-1.75-1.75h-13.5a1.747 1.747 0 0 0-1.75 1.75v9.5c0 .966.784 1.75 1.75 1.75H84v.5q0 .51.118 1H77.25a3.25 3.25 0 0 1-3.25-3.25zM93.5 116a1.5 1.5 0 0 1 1.5 1.5v.5c0 1.971-1.86 4-5 4s-5-2.029-5-4v-.5a1.5 1.5 0 0 1 1.5-1.5zm-3.5-6.5a2.753 2.753 0 0 1 2.75 2.75A2.75 2.75 0 0 1 90 115a2.753 2.753 0 0 1-2.75-2.75A2.75 2.75 0 0 1 90 109.5"/><path fill="#fff" d="M75.626 126.727h1.093v5.157q0 .7-.276 1.196-.275.498-.771.76-.498.26-1.165.259-.615 0-1.104-.223a1.8 1.8 0 0 1-.77-.65q-.281-.43-.281-1.044h1.09a.96.96 0 0 0 .138.522 1 1 0 0 0 .387.344q.249.121.569.121.347 0 .589-.146a.94.94 0 0 0 .373-.436q.128-.288.128-.703zm4.903 7.383q-.767 0-1.339-.351a2.4 2.4 0 0 1-.888-.984q-.315-.633-.316-1.477 0-.849.316-1.485.317-.636.888-.987.572-.352 1.339-.352t1.339.352q.57.351.888.987.315.636.316 1.485 0 .844-.317 1.477-.315.631-.887.984-.572.351-1.34.351m.004-.891q.496 0 .823-.263.328-.262.483-.7.16-.437.16-.962 0-.522-.16-.959a1.56 1.56 0 0 0-.483-.706q-.326-.267-.823-.267-.5 0-.832.267-.326.266-.486.706a2.8 2.8 0 0 0-.156.959q0 .525.156.962.16.438.486.7.33.263.832.263m4.785-2.458V134h-1.061v-7.273h1.047v2.706h.068q.192-.44.586-.699.394-.26 1.03-.26.56 0 .98.231.423.231.653.689.235.454.235 1.137V134h-1.062v-3.342q0-.6-.31-.93-.308-.334-.859-.334-.375 0-.674.16a1.16 1.16 0 0 0-.466.469 1.5 1.5 0 0 0-.166.738m6.016 0V134h-1.062v-5.455h1.02v.888h.067q.189-.433.59-.696.405-.263 1.019-.263.557 0 .976.235.42.23.65.689t.23 1.133V134h-1.06v-3.342q0-.593-.31-.926-.31-.338-.848-.338-.37 0-.657.16-.285.16-.451.469-.165.305-.164.738"/><rect width="362" height="239" x="19" y="30" fill="#0b0b0b" rx="4"/><g clip-path="url(#clip1_9781_46598)"><rect width="74" height="56" x="300" y="59" fill="#1e1e1e" rx="4"/><g clip-path="url(#clip2_9781_46598)"><path fill="#999" d="M365.6 68.2a.6.6 0 1 1 0-1.2.6.6 0 0 1 0 1.2m0 2.4a.6.6 0 1 1 0-1.2.6.6 0 0 1 0 1.2m-.6 1.8a.6.6 0 1 0 1.2 0 .6.6 0 0 0-1.2 0"/></g><rect width="17.267" height="2.178" x="309.805" y="109.338" fill="#474747" rx="1.089"/></g><g clip-path="url(#clip3_9781_46598)"><rect width="74" height="56" x="300" y="121" fill="#1e1e1e" rx="4"/><g clip-path="url(#clip4_9781_46598)"><path fill="#999" d="M365.6 130.2a.6.6 0 1 1 .001-1.201.6.6 0 0 1-.001 1.201m0 2.4a.6.6 0 1 1 .001-1.201.6.6 0 0 1-.001 1.201m-.6 1.8a.6.6 0 1 0 1.201-.001.6.6 0 0 0-1.201.001"/></g><rect width="17.267" height="2.178" x="309.805" y="171.338" fill="#474747" rx="1.089"/></g><g clip-path="url(#clip5_9781_46598)"><rect width="74" height="57" x="300" y="183" fill="#1e1e1e" rx="4"/><g clip-path="url(#clip6_9781_46598)"><path fill="#999" d="M365.6 192.2a.6.6 0 1 1 .001-1.201.6.6 0 0 1-.001 1.201m0 2.4a.6.6 0 1 1 .001-1.201.6.6 0 0 1-.001 1.201m-.6 1.8a.6.6 0 1 0 1.201-.001.6.6 0 0 0-1.201.001"/></g><rect width="17.267" height="2.217" x="309.805" y="234.237" fill="#474747" rx="1.108"/></g><path fill="#1e1e1e" d="M19 34a4 4 0 0 1 4-4h354a4 4 0 0 1 4 4v9H19zm0 231a4 4 0 0 0 4 4h354a4 4 0 0 0 4-4v-9H19z"/><rect width="240" height="188" x="54" y="56" fill="#1e1e1e" rx="4"/><g clip-path="url(#clip7_9781_46598)"><path fill="#2160fd" d="M46.4 56H25.6a1.6 1.6 0 0 0-1.6 1.6v20.8a1.6 1.6 0 0 0 1.6 1.6h20.8a1.6 1.6 0 0 0 1.6-1.6V57.6a1.6 1.6 0 0 0-1.6-1.6"/><path fill="#f5f5f7" d="M41.756 61.922a1.5 1.5 0 0 0-1.057-1.06C39.759 60.604 36 60.6 36 60.6s-3.758-.004-4.698.242c-.505.138-.92.553-1.06 1.067-.248.94-.25 2.889-.25 2.889s-.003 1.958.243 2.888c.138.514.543.92 1.058 1.06.95.257 4.698.261 4.698.261s3.76.004 4.699-.242a1.51 1.51 0 0 0 1.06-1.057c.248-.94.25-2.888.25-2.888s.012-1.958-.244-2.898m-6.958 4.681.003-3.6 3.124 1.803z"/><path fill="#ddd" d="M43.6 73.2H28a1.6 1.6 0 1 0 0 3.2h15.6a1.6 1.6 0 1 0 0-3.2"/></g></g><defs><clipPath id="clip0_9781_46598"><path fill="#fff" d="M0 0h400v300H0z"/></clipPath><clipPath id="clip1_9781_46598"><rect width="74" height="56" x="300" y="59" fill="#fff" rx="4"/></clipPath><clipPath id="clip2_9781_46598"><path fill="#fff" d="M350 67h16v16h-16z"/></clipPath><clipPath id="clip3_9781_46598"><rect width="74" height="56" x="300" y="121" fill="#fff" rx="4"/></clipPath><clipPath id="clip4_9781_46598"><path fill="#fff" d="M350 129h16v16h-16z"/></clipPath><clipPath id="clip5_9781_46598"><rect width="74" height="57" x="300" y="183" fill="#fff" rx="4"/></clipPath><clipPath id="clip6_9781_46598"><path fill="#fff" d="M350 191h16v16h-16z"/></clipPath><clipPath id="clip7_9781_46598"><path fill="#fff" d="M24 56h24v24H24z"/></clipPath><pattern id="pattern0_9781_46598" width=".037" height=".049" patternContentUnits="objectBoundingBox"><use xlink:href="#image0_9781_46598" transform="scale(.00066 .00088)"/></pattern><image xlink:href="data:image/png;base64,iVBORw0KGgoAAAANSUhEUgAAADgAAAA4CAYAAACohjseAAAACXBIWXMAACxLAAAsSwGlPZapAAAAAXNSR0IArs4c6QAAAARnQU1BAACxjwv8YQUAAADdSURBVHgB7dmxDoMgFIXhCzEmbsbF9388F8PGAKHt6dSksvXaHHK+EQbzB0Sj4fFiA4s2OAWyUyA7BbJTIDsFslMgOwWyUyA7BbJTIDsFspvsBrVWO8/TSinWWrNlWWxdV5sm/8sH7w+/iDuO4x32KcZo+767R7pv0ZTSVxxgDKvqzT0w59ydw5b15h4YQujOXa3sr7kHzvPcncNh4809cNu2y1XEGE5Sb+GO32c4SXHY4H5EGFYV4UM8Jv5Nr2rsFMhOgewUyE6B7BTIToHsFMhOgewUyE6B7IYPfALcB0NZ5j6jXgAAAABJRU5ErkJggg==" id="image0_9781_46598" width="56" height="56" preserveAspectRatio="none"/></defs></svg>
